X: 100432
T: HAWTHORNDEN
C: Composed by J. Nash, Dalkeith
R: reel
B: K\"ohler's Violin Repository, v.3, 1885 p.275 #1
F: http://www.archive.org/details/klersviolinrepos03rugg
Z: 2012 John Chambers <jc:trillian.mit.edu>
M: C|
L: 1/8
K: D
((3uABc) |\
dcde fgfe | d2a2 a2(gf) |gaba gfed | f2e2 e2((3ABc) |\
dcde fgfe | d2f2 B2(de) | fgfe dbag | f2d2 d2 :|
|: (uef) |\
gfed cBAG | F2E2 E2(Bc) | dcBf edcB | f2B2 B2(ef) |\
gfed cBAG | F2B2 A2(de) | fgfe dbag | f2d2 d2 :|

%%sep 2 1 500

